X:3
T:Chromatic scales (4 octaves)
N: Minimum musical range is C, to c''
N: but most programs support the entire MIDI
N: range.  
M:C
K:C
C,^C,D,^D, E,F,^F,G, | ^G,A,^A,B, C^CD^D | EF^FG^ GA^AB |
c^cd^d ef^fg | ^ga^ab c'^c'd'^d' | e'f'^f'g' ^g'a'^a'b'c'' |
b'_b'a'_a' g'_g'f'e' | _e'd'_d'c' b_ba_a | g_gfe _ed_dc |
B_BA_A G_GFE | _ED_DC B,_B,A,_A, | G,_G,F,E, _E,D,_D,C, |

